X:1
T:Popule Meus
T:Juozas Naujalis (1869-1934) Op. 7, No. 2
T:by Mutopia-2007/04/30-970
T:by Mutopia-2007/04/30-970
T:by Mutopia-2007/04/30-970
T:by Mutopia-2007/04/30-970
T:by Mutopia-2007/04/30-970
T:by Mutopia-2007/04/30-970
C:Juozas Naujalis
Z:by Mutopia-2007/04/30-970
%%score [ 1 2 3 4 ]
L:1/8
Q:1/4=70
M:4/4
K:F
V:1 treble nm="Cantus"
V:2 treble nm="Altus"
V:3 treble-8 nm="Tenor"
V:4 bass nm="Bassus"
V:1
"^Andante"!p! A4 |!<(! A2 A2 A4-!<)! |!>(! A4 A2!<(! A2!>)! | c2 c2 (c4!<)! |!>(! B8)!>)! | %5
w: Po\-|pu\- le me\--|* us, quid|fe\- ci ti-||
 !fermata!A8 |!mf! B2 c2 d2 d d | d2 d2 d4 |"^rit." ^c4 d2!>(! A2 | G4!>)! !fermata!E4 || %10
w: bi?|aut in quo con\- tri\-|sta\- vi te?|res\- pon\- de|mi\- hi.|
 F4 A2 d2 | c2 B2 A4 | z2 c2 c4 | B2 A2 c4 | A6 z2 | B2!f! B4 B2 | d4 d4 | d2 e2 f3 e | (d6 ^c2) | %19
w: Qui\- a e\-|du\- xi te|de ter\-|ra Æ\- gy\-|pti|pa\- ra\- sti|cru\- cem|Sal\- va\- to\- ri|tu- *|
 d8 ||[M:3/4]!p! A3 A A2 | B4 G2 | A4 z2 ||[M:4/4]!f! c4 d4 | c4 !fermata!c4 |[M:3/4]!p! A3 A A2 | %26
w: o.|A\- gi\- os|o The\-|os.|San\- ctus|De\- us.|A\- gi\- os|
 B4 G2 | A4 z2 ||[M:4/4]!f! c6 c2 | (f3 e d4) | !fermata!c8 ||!p! A3 A A2 A2 | c3 c c2 d2 | d4 c4 | %34
w: i\- schy\-|ros.|San\- ctus|for\- _ _|tis.|A\- gi\- os a|tha\- na\- tos, e\-|lei\- son|
 B4 !fermata!A4 ||!mf! A3 A A2 A2 | G4 F4 |"^rit." G2 A2 c2 F2 |!>(! (G3 F E4)!>)! | %39
w: i\- mas.|San\- ctus im\- mor\-|ta\- lis,|mi\- se\- re\- re|no- * *|
"_℣" !fermata!F8 ||!ff!!ff! d16[Q:1/4=100]"^Allegro" | d4 A2 A2 | A4 A4 | B2 c2!>(! B4!>)! | %44
w: bis.|Quid~ultra~debui|fa\- ce\- re|ti\- bi:|et non fe\-|
 A6 z2 |!<(! G16!<)! |!>(! A2 A2 G4!>)! | c2 c c d2 d2 | f4 c2 d2 | c3 B A4 |"^accel." B2 B2 B4 | %51
w: ci?|Ego~quidam~plan\-|ta\- vi te|vi\- ne am me\- am|spe\- ci\- o\-|sis\- si\- mam:|et tu fa\-|
 A4 G4 | A2 A2 A4 | c2 c2 c4 | =B4 z4 | c16 | c4 c4 | d4 f2 f2 | e4 ^c4 | z2 d2 d2 d d | %60
w: cta es|mi\- hi ni\-|mis a\- ma\-|ra:|aceto~namque|si\- tim|me\- am po\-|ta\- sti:|et lan\- ce\- a|
 d2 d2 c2 B2 | c4 A4 |"^rit." F2 G2 A2 G2 |!>(! (F4 E4) |!p! D8!>)! ||!f! G4 c4 | c16 | B4 A4 | %68
w: per\- fo\- ra\- sti|la\- tus|Sal\- va\- to\- ri\-|tu *|o.|E\- go|propter~te~'~flagelavi~Æ\-|gy\- ptum|
 z2 G2 G2 G2 |!<(! A4 A2 A2!<)! |!>(! c4!>)! !fermata!=B4 | c16 | c2 A2 A2"^rit." A2 | (G4 E4) | %74
w: cum pri\- mo|ge\- ni\- tis|su\- is:|et~tu~me~flagel\-|la\- tum\- tra\- di\-|di- *|
 !fermata!F8 || z4[Q:1/4=70]"^Andante.\n" A4 |!<(! A2 A2 A4-!<)! |!>(! A4!>)! A2!<(! A2 | %78
w: sti:|Po\-|pu\- le me\-|_ us, quid|
 c2 c2 (c4!<)! |!>(! B8)!>)! | !fermata!A8 | B2 c2 d2 d d | d2 d2 d4 |"^rit." ^c4 d2 A2 | (G4 E4) | %85
w: fe\- ci\- ti-||bi?|aut in quo con\- tri\-|sta\- vi te?|res\- pon\- de|mi\- _|
 D8 |] %86
w: hi.|
V:2
!p! F4 |!<(! F2 E2 (D4!<)! |!>(! ^C4) D2!>)!!<(! D2 | E2 E2!<)! (F4 |!>(! D4 G4)!>)! | %5
w: Po\--|pu- le me\--|* us, quid|fe- ci ti\-|_ _|
 !fermata!E8 |!mf! G2 A2 B2 B B | B3 A G4 |"^rit." G4 F2!>(! F2 | D4!>)! !fermata!^C4 || D4 E2 D2 | %11
w: bi?|aut in quo con\- tri-|sta\- vi te?|res\- pon\- de|mi\- hi.|Qui\- a e\-|
 F3 E F4 | z2 F2 F4 | D2 F4 E2 | F6 z2 |!f! D2 D4 G2 | (B3 A G2) B2 | A2 A2 _A2 A2 | A8 | F8 || %20
w: du\- xi te|de ter\-|ra Æ\- gy\-|pti|pa\- ra\- sti|cru\- _ cem *|Sal\- va\- to\- ri|tu\-|o.|
[M:3/4]!p! F3 F F2 | F4 E2 | F4 z2 ||[M:4/4]!f! F4 F4 | (F2 E2) !fermata!F4 |[M:3/4]!p! F3 F F2 | %26
w: A\- gi\- os|o The\-|os.|San\- ctus|De\- * us.|A\- gi\- os|
 F4 E2 | F4 z2 ||[M:4/4]!f! (F4 A2) G2 | F8 | !fermata!E8 ||!p! F3 F F2 F2 | F3 F F2 F2 | %33
w: i\- schy\-|ros.|San\- _ ctus|for\-|tis.|A\- gi\- os a\-|tha\- na\- tos, e\-|
 (F3 G A2) G2 | F4 !fermata!F4 ||!mf! F3 F F2 F2 | E4 D4 |"^rit." C2 C2 C2 D2 |!>(! (D6 ^C2)!>)! | %39
w: lei\- _ _ son|i\- mas.|San\- ctus im\- mor\-|ta\- lis,|mi\- se\- re\- re|no\- _|
"_℣" !fermata!D8 || F16 | F4 F2 F2 | F4 F4 | G2 F2!>(! (F2!>)! E2) | F6 z2 |!<(! E16!<)! | %46
w: bis.|Quid~ultra~debui|fa\- ce\- re|ti\- bi:|et non fe\- _|ci?|Ego~quidam~plan\-|
!>(! C2 C2 C4!>)! | E2 E E D2 F2 | F4 F2 F2 | F2 E2 F4 |"^accel." D2 D2 C4 | C4 C4 | C2 C2 C4 | %53
w: ta\- vi te|vi\- ne am me\- am|spe\- ci\- \-|sis\- _ mam:|et tu fa\-|cta es|mi\- hi ni\-|
 F2 F2 F4 | D4 z4 | E16 | F4 F4 | F4 F2 A2 | _A4 =A4 | z2 F2 F2 F F | F2 F2 F2 G2 | G4 F4 | %62
w: mis a\- ma\-|ra:|aceto~namque~|si\- tim|me\- am po\-|ta\- sti:|et lan\- ce\- a|per\- fo\- ra\- sti|la\- tus|
"^rit." D2 E2 F2 E2 |!>(! D4- D2 ^C2 |!p! D8!>)! ||!f! E4 E4 | F16 | F4 F4 | z2 E2 E2 E2 | %69
w: Sal\- va\- to\- ri|tu\- _ _|o.|E\- go|propter~te~'~flagelavi~Æ\-|gy ptum|cum pri\- mo\-|
!<(! F4 F2 F2!<)! |!>(! F4!>)! !fermata!D4 | E16 | F2 F2 F2"^rit." F2 | (D4 ^C4) | !fermata!D8 || %75
w: ge\- ni\- tis|su\- is:|et~tu~me~flagel\-|la\- tum tra\- di\-|di\- *|sti:|
 z4 F4 |!<(! F2 E2 (D4!<)! |!>(! ^C4)!>)! D2!<(! D2 | E2 E2 (F4!<)! |!>(! D4) G4!>)! | %80
w: Po\-|pu\- le me\-|_ us, quid|fe\- ci ti\-|_ _|
 !fermata!E8 | G2 A2 B2 B B | B3 A G4 |"^rit." G4 F2 F2 | (D6 ^C2) | D8 |] %86
w: bi?|aut in quo con\- tri\-|sta\- * te?|res\- pon\- de|mi\- _|hi.|
V:3
!p! d4 |!<(! A2 G2 (F4-!<)! |!>(! F2 E2!>)! F4) | z2!<(! G2 A2!<)! A2 |!>(! (B4 d4-!>)! | %5
w: Po\-|pu\- le me\-|* * us,|quid fe\- ci|ti\- _|
 d4) !fermata!^c4 |!mf! d2 f2 f2 f f | g2 dc B4 |"^rit." A2 G2 A2!>(! A2 | B4!>)! !fermata!A4 || %10
w: _ bi|aut in quo con\- tri\-|sta\- * vi te?|res\- * pon\- de|mi\- hi.|
 A4 A2 B2 | c2 c2 c4 | z2 A2 A4 | B2 d2 (G3 c) | c6 z2 |!f! g2 g4 d2 | d4- d2 g2 | f2 e2 d3 e | %18
w: Qui a e\-|du\- xi te|de\- ter\-|ra Æ\- gy\- _|pti|pa\- ra\- sti|cru\- * cem|Sal\- va\- to\- *|
 (f4 e4) | d8 ||[M:3/4]!p! c3 c c2 | d4 c2 | c4 z2 ||[M:4/4]!f! A4 (B2 A2) | G4 !fermata!A4 | %25
w: tu\- _|o.|A\- gi\- os|o The\-|os.|San\- ctus *|De\- us.|
[M:3/4]!p! c3 c c2 | d4 c2 | c4 z2 ||[M:4/4]!f! (A4 c2) G2 | (A4 [G=B]4) | !fermata![Gc]8 || %31
w: A\- gi\- os|i\- schy\-|ros.|San\- * ctus|for\- _|tis.|
!p! c3 c c2 c2 | A3 A A2 A2 | (d3 e f2) e2 | d4 !fermata!c4 ||!mf! d3 d c2 c2 | c2 B2 A4 | %37
w: A\- gi\- os a\-|tha\- na\- tos, e\-|lei\- * * son|i\- mas.|San\- ctus im\- mor\-|ta\- _ lis,|
"^rit." G2 F2 F2 F2 |!>(! (B3 A G2 A2)!>)! |"_℣" !fermata!A8 ||!ff! B16 | A4 A2 A2 | A4 d4 | %43
w: mi\- se\- re\- re|no\- _ _ _|bis.|Quid~ultra~debui|fa\- ce\- re|ti\- bi:|
 d2 c2!>(! (d2 B2)!>)! | c4- c2 z2 |!<(! c16!<)! |!>(! A2 F2 E4!>)! | G2 G A B2 B2 | A4 A2 A2 | %49
w: et non fe\- _|ci? *|Ego~quidam~plan\-|ta\- vi te|vi\- ne am me\- am|spe\- ci\- o\-|
 G2 c2 c4 |"^accel." B2 B2 G4 | F4 E4 | F2 F2 F4 | A2 A2 A4 | G4 z4 | G16 | A4 A4 | A4 d2 c2 | %58
w: sis\- si\- mam:|et tu fa\-|cta es|mi\- hi ni.\-|mis a. ma.|ra:|aceto~namque~|si. tim|me. am po.|
 =B4 A4 | z2 A2 A2 A A | B2 B2 c2 d2 | c4 c4 |"^rit." d2 B2 c2 B2 |!>(! (A4 G4) |!p! F8!>)! || %65
w: ta\- sti:|et lan\- ce\- a|per\- fo\- ra\- sti|la\- tus|Sal\- va\- to\- ri|tu\- _|o.|
!f! c4 G4 | A16 | d4 c4 | z2 c2 c2 c2 |!<(! c4 c2 c2!<)! |!>(! A4!>)! !fermata!G4 | G16 | %72
w: E\- go|propter~te~'~flagelavi~Æ\-|gy\- ptum|cum pri mo\-|ge\- ni\- tis|su\- is:|et~tu~me~flagel|
 A2 c2 d2"^rit." A2 | (B4 A4) | !fermata!A8 || z4 d4 |!<(! A2 G2 (F4-!<)! |!>(! F2 E2)!>)! F4 | %78
w: la\- tum tra\- di\-|di\- _|sti:|Po\-|pu\- le me\-|_ _ us,|
 z2 G2 A2 A2 |!>(! (B4 d4-!>)! | d4) !fermata!^c4 | d2 f2 f2 f f | g2 dc B4 |"^rit." A2 G2 A2 A2 | %84
w: quid fe\- ci|.ti\- _|_ bi^|aut in quo con\- tri\-|sta\- * vi te?|res\- * pon\- de|
 (B4 A4) | F8 |] %86
w: mi\- *|hi.|
V:4
!p! D,4 |!<(! D,2 D,2 (D,4!<)! |!>(! A,,4)!>)! D,4 | z2!<(! C,2 F,2!<)! F,2 |!>(! G,8!>)! | %5
w: Po\-|pu\- le me\-|* us,|quid fe\- ci|ti\-|
 !fermata!A,8 |!mf! G,2 F,2 B,2 B, A, | G,2 G,2 G,4 |"^rit." E,4 D,2!>(! D,2 | %9
w: bi|aut in quo con\- tri\-|sta vi te?|res\- pon\- de|
 G,,4!>)! !fermata!A,,4 || D,4 C,2 B,,2 | A,,2 G,,2 F,,4 | z2 F,2 F,4 | G,2 D,2 C,4 | F,6 z2 | %15
w: mi\- hi.|Qui a e\-|du\- xi te|de ter|ra Æ\- gy\-|pti|
!f! G,2 G,4 G,2 | (G,3 A, B,2) G,2 | D,2 C,2 B,,2 B,2 | A,8 | [D,A,]8 ||[M:3/4]!p! F,3 F, F,2 | %21
w: pa\- ra\- sti|cru\- * * cem|Sal\- va\- to\- *|tu\-|o.|A\- gi\- os|
 B,,4 C,2 | F,4 z2 ||[M:4/4]!f! F,4 B,,4 | C,4 !fermata!F,4 |[M:3/4]!p! F,3 F, F,2 | B,,4 C,2 | %27
w: o The\-|os.|San\- ctus|De\- us.|A\- gi\- os|i\- schy\-|
 F,4 z2 ||[M:4/4]!f! F,6 E,2 | (D,4 G,,4) | !fermata!C,8 ||!p! F,3 F, F,2 F,2 | F,3 F, F,2 D,2 | %33
w: ros.|San\- ctus|for\- _|tis.|A\- gi\- os a\-|tha\- na\- tos, e\-|
 B,,4 A,,4 | B,,4 !fermata!F,4 ||!mf! D,3 D, F,2 F,2 | C,4 D,4 |"^rit." E,2 F,2 A,,2 B,,2 | %38
w: lei\- son|i\- mas.|San\- ctus im\- mor\-|ta\- lis,|mi\- se\- re\- re|
!>(! (G,,2 B,,4 A,,2)!>)! |"_℣" !fermata!D,8 ||!ff! B,,16 | D,4 D,2 D,2 | D,4 D,4 | %43
w: no\- _ _|bis.|Quid~ultra~debui|fa\- ce\- re|ti\- bi:|
 G,2 A,2!>(! G,4!>)! | F,4- F,2 z2 |!<(! C,16!<)! |!>(! F,2 F,2 C,4!>)! | C,2 C, C, B,,2 B,,2 | %48
w: et non fe\-|ci? *|Ego~quidam~plan\-|ta\- vi te|vi\- ne am me\- am|
 D,4 F,2 F,2 | C,2 C,2 F,4 |"^accel." G,2 G,2 E,4 | F,4 C,4 | F,2 F,2 F,4 | F,2 F,2 F,4 | G,4 z4 | %55
w: spe\- ci\- o\-|sis\- si\- mam:|et tu fa.|cta es|mi. hi ni.|mis a. ma.|ra:|
 C,16 | F,4 F,4 | D,4 D,2 D,2 | E,4 A,,4 | z2 D,2 D,2 D, D, | B,,2 B,,2 A,,2 G,,2 | E,4 F,4 | %62
w: aceto~namque~|si. tim|me. am po.|ta\- sti:|et lan\- ce\- a|per\- fo\- ra\- sti|la\- tus|
"^rit." B,2 G,2 F,2 C,2 |!>(! D,4 A,,4 |!p! D,8!>)! ||!f! C,4 C,4 | F,16 | B,,4 F,4 | %68
w: Sal\- va\- to\- ri|tu\- _|o.|E\- go|propter~te~'~flagelavi~Æ\-|gy\- ptum|
 z2 C,2 C,2 C,2 |!<(! F,4 F,2 F,2!<)! |!>(! F,4!>)! !fermata!G,4 | C,16 | F,2 F,2 D,2"^rit." D,2 | %73
w: cum pri\- mo\-|ge\- ni\- tis|su\- is:|et~tu~me~flagel\-|la\- tum tra\- di\-|
 (G,,4 A,,4) | !fermata!D,8 || z4 D,4 |!<(! D,2 D,2 (D,4!<)! |!>(! A,,4)!>)! D,4 | z2 C,2 F,2 F,2 | %79
w: di\- _|sti:|Po\-|pu\- le\- me\-|_ us,|quid fe\- ci|
!>(! G,8!>)! | !fermata!A,8 | G,2 F,2 B,2 B, A, | G,2 G,2 G,4 |"^rit." E,4 D,2 D,2 | (G,,4 A,,4) | %85
w: ti\-|bi?|aut in quo con\- tri\-|sta\- vi te?|res\- pon\- de|mi\- *|
 D,8 |] %86
w: hi.|

